icon-themes/colibre_svg/cmd/lc_symbolshapes.sun.svg

<svg viewBox="0 0 24 24" xmlns="http://www.w3.org/2000/svg"><g fill="#fafafa" stroke="#3a3a38" stroke-linecap="round" stroke-linejoin="round"><path d="m12 2.5-1.603516 3.2050781a6.5 6.5 0 0 1 1.603516-.2050781 6.5 6.5 0 0 1 1.605469.2089844zm-6.7167969 2.7832031 1.1269531 3.4121094a6.5 6.5 0 0 1 2.2871094-2.2851563zm13.4335939 0-3.412109 1.1269531a6.5 6.5 0 0 1 2.285156 2.2871094zm-13.0078126 5.1113279-3.2089844 1.605469 3.2050781 1.603516a6.5 6.5 0 0 1 -.2050781-1.603516 6.5 6.5 0 0 1 .2089844-1.605469zm12.5859376.001953a6.5 6.5 0 0 1 .205078 1.603516 6.5 6.5 0 0 1 -.208984 1.605469l3.208984-1.605469zm-11.8847658 4.90625-1.1269531 3.414063 3.4121094-1.126953a6.5 6.5 0 0 1 -2.2851563-2.28711zm11.1796878.001954a6.5 6.5 0 0 1 -2.28711 2.285156l3.414063 1.126953zm-7.195313 2.986328 1.605469 3.208984 1.603516-3.205078a6.5 6.5 0 0 1 -1.603516.205078 6.5 6.5 0 0 1 -1.605469-.208984z"/><circle cx="12" cy="12" r="4.5"/></g></svg>

<?xml-stylesheet type="text/css" href="icons.css" ?>
<svg viewBox="0 0 24 24" xmlns="http://www.w3.org/2000/svg">
  <path
	 class="icn icn--shape-color" 
     d="M 12,2.5 10.396484,5.7050781 A 6.5,6.5 0 0 1 12,5.5 6.5,6.5 0 0 1 13.605469,5.7089844 Z M 5.2832031,5.2832031 6.4101562,8.6953 A 6.5,6.5 0 0 1 8.697,6.4101562 Z m 13.4335939,0 -3.412109,1.1269531 a 6.5,6.5 0 0 1 2.285156,2.2871094 z M 5.7089844,10.394531 2.5,12 5.7050781,13.603516 A 6.5,6.5 0 0 1 5.5,12 6.5,6.5 0 0 1 5.7089844,10.394531 Z m 12.5859376,0.002 A 6.5,6.5 0 0 1 18.5,12 6.5,6.5 0 0 1 18.291016,13.605469 L 21.5,12 Z m -11.8847658,4.90625 -1.1269531,3.414063 3.4121094,-1.126953 a 6.5,6.5 0 0 1 -2.2851563,-2.28711 z m 11.1796878,0.002 a 6.5,6.5 0 0 1 -2.28711,2.285156 l 3.414063,1.126953 z M 10.394531,18.291016 12,21.5 13.603516,18.294922 A 6.5,6.5 0 0 1 12,18.5 6.5,6.5 0 0 1 10.394531,18.291016 Z"
     fill="#fafafa" 
	 stroke="#3a3a38" 
	 stroke-linecap="round" 
	 stroke-linejoin="round"
     />
  <circle
     cx="12"
     cy="12"
     r="4.5"
     class="icn icn--shape-color" 
     fill="#fafafa" 
	 stroke="#3a3a38" 
	 stroke-linecap="round" 
	 stroke-linejoin="round"
     />
</svg>
